X: 162
T:Blyth Jockey,Young and Gay. HA.161
M:3/4
L:1/8
Q:1/4=120
S:Henry Atkinson's original MS,Hartburn,N'umberland,1694.
R:Saraband
O:England
A:Hartburn,Northumberland
N:cf Scots Musical Museum,1787..CGP.
H:1/8
Z:vmp.Neil Brookes, Jan.2004
K:D
"u"F2(AF)(E>D)|B3cB2|(Ad)(AF)(E>D)|E3FG2|!
F2(AF)(E>D)|B3cd2|(d/2e/2f) (ec)B>A|A3Bc2:|!
|:"u"c2(ec)(de)|f3gf2|(ea)(ec)B>A|f3gf2|!
B2(GB)eB|c3BA2|"tr"Td2(AF)E>D|d3ef2:|]
